lib/brands/icons/terraform.svg

<svg xmlns="http://www.w3.org/2000/svg" fill="none" aria-hidden="true" viewBox="0 0 48 48"><g id="terraform-Icon"><g id="Group"><path id="Vector" fill="#4040B2" d="M30 29.388L39.84 23.712V12.342L30 18.03V29.388Z"/><path id="Vector_2" fill="#5C4EE5" d="M19.0802 12.342L28.9202 18.03V29.388L19.0802 23.706V12.342ZM8.16016 17.364L18.0002 23.046V11.682L8.16016 6V17.364ZM19.0802 36.318L28.9202 42V30.636L19.0802 24.954"/></g></g></svg>

<svg xmlns="http://www.w3.org/2000/svg" fill="none" aria-hidden="true" viewBox="0 0 48 48"><path fill="#4040B2" d="m30 29.388 9.84-5.676v-11.37L30 18.03v11.358Z"/><path fill="#5C4EE5" d="m19.08 12.342 9.84 5.688v11.358l-9.84-5.682V12.342ZM8.16 17.364 18 23.046V11.682L8.16 6v11.364Zm10.92 18.954L28.92 42V30.636l-9.84-5.682"/></svg>
